X:6
T:"Henry Gowan" by Mickie Zekley  1988
D:Written while playing the pennywhistle and having the car break down, than being rescued by Henry Gowan.
S:Original Tune
R:Jig
O:Philo, California
M:6/8
Q:300
F:http://larkcamp.com/meabc.txt
K:Em
EGB BAF|AFD E2 e/f/|gfe dBG|1AFD ~E3:|2AdF ~E3|:Bee cee|Be/f/g fed|Bee cee|BeG e3:|
